images/images/breadcrumbs-arrow.svg

<svg width="4" height="8" viewBox="0 0 4 8" fill="none" xmlns="http://www.w3.org/2000/svg">
<g opacity="0.2" clip-path="url(#clip0_97_388)">
<path d="M3.79999 3.59995L0.799994 0.599951C0.599994 0.399951 0.299994 0.399951 0.0999939 0.599951C-6.10203e-06 0.799951 -6.10203e-06 1.19995 0.0999939 1.39995L2.69999 3.99995L0.0999939 6.59995C-6.10203e-06 6.79995 -6.10203e-06 7.09995 0.0999939 7.29995C0.199994 7.39995 0.399994 7.49995 0.499994 7.49995C0.599994 7.49995 0.799994 7.39995 0.899994 7.39995L3.89999 4.39995C3.89999 4.29995 3.99999 4.09995 3.99999 3.99995C3.99999 3.89995 3.89999 3.69995 3.79999 3.59995Z" fill="black"/>
</g>
<defs>
<clipPath id="clip0_97_388">
<rect width="4" height="7" fill="white" transform="translate(0 0.5)"/>
</clipPath>
</defs>
</svg>

<svg width="4" height="8" fill="none" xmlns="http://www.w3.org/2000/svg"><path d="m3.8 3.6-3-3C.6.4.3.4.1.6c-.1.2-.1.6 0 .8L2.7 4 .1 6.6c-.1.2-.1.5 0 .7.1.1.3.2.4.2.1 0 .3-.1.4-.1l3-3c0-.1.1-.3.1-.4 0-.1-.1-.3-.2-.4Z" fill="#000"/></svg>
